X:1
T:Evanston, CM
T:Evanston, CM
T:Karl Pomeroy Harrington, 1905
T:Public Domain Courtesy of the Cyber Hymnal™
C:Karl Pomeroy Harrington, 1905
Z:Public Domain
Z:Courtesy of the Cyber Hymnal™
%%score ( 1 2 ) ( 3 4 )
L:1/8
Q:1/4=110
M:4/4
K:G
V:1 treble 
V:2 treble 
V:3 bass 
V:4 bass 
V:1
 [GB]2 [GB][FA] G2 [FA]2 | [GB]2 [Fd]2 [Gd]3 [=Fd] | [Ec]2 [Ec]2 [Ec]2 [DB]2 | [CA]8 | %4
 [Ec]2 [Ec][DB] A2 E2 | [^DG]2 [DF]2 E3 [^A,E] | [B,D]2 [DG]2 [EG]2 [FA]2 | G8 |] %8
V:2
 x4 G2 x2 | x8 | x8 | x8 | x4 (CE) E2 | x4 E3 x | x8 | G8 |] %8
V:3
 [G,D]2 [G,D][G,C] [G,B,]2 [B,,D]2 | [G,D]2 [A,C]2 B,3 [^G,B,] | [A,C]2 [C,A,]2 [E,^G,]2 [E,G,]2 | %3
 A,8 | [A,,A,]2 [A,,E,][B,,^G,] [C,A,]2 [C,A,]2 | [B,,B,]2 [B,,A,]2 [C,G,]3 [^C,G,] | %6
 [D,G,]2 [D,B,]2 [D,C]2 [D,C]2 | [G,B,]8 |] %8
V:4
 x8 | x4 B,3 x | x8 | A,8 | x8 | x8 | x8 | x8 |] %8

